X:5198
T:Polska efter Per Jonas L\aa{}ng, Haver\"o
O:england
S:E \"Overg\aa{}rd nr 571
N:Kringpolska
R:Polska
M:3/4
L:1/8
A:Haver\"o, W.Medelpad
K:G
g>d (gb) b2 | {gag}f>d (fa) a2 |\
f>d gg (3b(gb) | (3a(fa) gd BG |\
g>d (gb) b2 | {gag}f>d (fa) a2 |
f>d gg (3b(gb) | (3.a.f.a [B4g4] ::\
G>g gd dB | G>B (ed) (cB) |
(3G(AB) (3c(Ac) B>G | (3G(AB) (BA) A2-|\
Ag gd dB | G>B (ed) (cB) |\
(3G(AB) (3c(Ac) (3B(GB) | (3.A.F.A [G,4G4]:|


